X:1
T:Markkrypern
M:3/4
L:1/8
R:Polska 
Z:Pelle Lindstad
Q:120
O:Oslo, Norge
C:Jørun Bøgeberg
M:3/4
L:1/16
K:D
|:(3D2E2F2 (3A2d2f2 e3c | B3A GF3 E3D| (3C2D2E2 (3G2A2c2 (3g2e2c2| d4(3f2e2d2 c3d|
(3D2E2F2 (3A2d2f2 e3c | B3A GF3 E3D |(3C2D2E2 (3G2A2c2 (3g2e2c2|1 [D8d8]z4:|2 {c}[D8d8]z2d2 ||
|:(3(f2e2)d2 (3e2f2g2 f3e|d3c Ac3 (3B2G2z2| (3F2E2G2 (3E2C2A,2 (3A,2C2E2|(3G2B2A2 F2z2 (3F2A2d2|
 (3f2e2d2 (3e2f2g2 f3e|d3c Ac3 B3g |(3g2e2c2 (3b2g2e2 (3c2e2A2| (3f2e2c2 d8:|

